Simply white circles/scalable/mimes/text-x-changelog.svg

<?xml version="1.0" encoding="UTF-8" standalone="no"?>
<!-- Created with Inkscape (http://www.inkscape.org/) -->

<svg
   xmlns:dc="http://purl.org/dc/elements/1.1/"
   xmlns:cc="http://creativecommons.org/ns#"
   xmlns:rdf="http://www.w3.org/1999/02/22-rdf-syntax-ns#"
   xmlns:svg="http://www.w3.org/2000/svg"
   xmlns="http://www.w3.org/2000/svg"
   xmlns:xlink="http://www.w3.org/1999/xlink"
   xmlns:sodipodi="http://sodipodi.sourceforge.net/DTD/sodipodi-0.dtd"
   xmlns:inkscape="http://www.inkscape.org/namespaces/inkscape"
   version="1.1"
   width="48"
   height="48"
   id="svg21744"
   sodipodi:docname="text-x-changelog.svg"
   inkscape:version="0.92.3 (2405546, 2018-03-11)">
  <sodipodi:namedview
     pagecolor="#ffffff"
     bordercolor="#666666"
     borderopacity="1"
     objecttolerance="10"
     gridtolerance="10"
     guidetolerance="10"
     inkscape:pageopacity="0"
     inkscape:pageshadow="2"
     inkscape:window-width="1366"
     inkscape:window-height="719"
     id="namedview44"
     showgrid="false"
     inkscape:zoom="5.15625"
     inkscape:cx="-38.884848"
     inkscape:cy="23.224242"
     inkscape:window-x="0"
     inkscape:window-y="25"
     inkscape:window-maximized="1"
     inkscape:current-layer="svg21744"
     inkscape:snap-global="false" />
  <defs
     id="defs21746">
    <linearGradient
       x1="525.4375"
       y1="836.1875"
       x2="516.65625"
       y2="828.5"
       id="linearGradient14113"
       xlink:href="#linearGradient14494-2-7"
       gradientUnits="userSpaceOnUse"
       gradientTransform="translate(-125.5,-1702.64)" />
    <linearGradient
       id="linearGradient14494-2-7">
      <stop
         id="stop14496-9-3"
         style="stop-color:#dc85e9;stop-opacity:1"
         offset="0" />
      <stop
         id="stop14498-9-7"
         style="stop-color:#f2cbf8;stop-opacity:1"
         offset="1" />
    </linearGradient>
    <linearGradient
       x1="520.58502"
       y1="735.05206"
       x2="516.15179"
       y2="720.86298"
       id="linearGradient14115"
       xlink:href="#linearGradient14494-5"
       gradientUnits="userSpaceOnUse" />
    <linearGradient
       id="linearGradient14494-5">
      <stop
         id="stop14496-5"
         style="stop-color:#dc85e9;stop-opacity:1"
         offset="0" />
      <stop
         id="stop14498-1"
         style="stop-color:#f2cbf8;stop-opacity:1"
         offset="1" />
    </linearGradient>
    <linearGradient
       x1="525.4375"
       y1="836.1875"
       x2="516.65625"
       y2="828.5"
       id="linearGradient54948"
       xlink:href="#linearGradient14494-2-7"
       gradientUnits="userSpaceOnUse"
       gradientTransform="translate(-462.50049,-802.00385)" />
    <linearGradient
       x1="520.58502"
       y1="735.05206"
       x2="516.15179"
       y2="720.86298"
       id="linearGradient14109"
       xlink:href="#linearGradient14494-5"
       gradientUnits="userSpaceOnUse"
       gradientTransform="matrix(0.512535,0,0,0.615385,-202.35949,-422.92385)" />
    <linearGradient
       x1="525.4375"
       y1="836.1875"
       x2="516.65625"
       y2="828.5"
       id="linearGradient54952"
       xlink:href="#linearGradient14494-2-7"
       gradientUnits="userSpaceOnUse"
       gradientTransform="translate(-462.50049,-797.50385)" />
    <linearGradient
       x1="209.0625"
       y1="-765.46082"
       x2="209.0625"
       y2="-781.62268"
       id="linearGradient44039"
       xlink:href="#linearGradient15606-1"
       gradientUnits="userSpaceOnUse"
       gradientTransform="matrix(1.5,0,0,1.5,-364.99949,1176.9562)" />
    <linearGradient
       id="linearGradient15606-1">
      <stop
         id="stop15608-0"
         style="stop-color:#ffffff;stop-opacity:0.58823502"
         offset="0" />
      <stop
         id="stop15610-5"
         style="stop-color:#ffffff;stop-opacity:0.86274499"
         offset="1" />
    </linearGradient>
    <linearGradient
       x1="294.3429"
       y1="256.58133"
       x2="294.41818"
       y2="243.13852"
       id="linearGradient44042"
       xlink:href="#linearGradient10286-3"
       gradientUnits="userSpaceOnUse"
       gradientTransform="matrix(2.99213,0,0,3.00466,-830.71149,-727.44385)" />
    <linearGradient
       id="linearGradient10286-3">
      <stop
         id="stop10288-8"
         style="stop-color:#b3b3b3;stop-opacity:1"
         offset="0" />
      <stop
         id="stop10290-7"
         style="stop-color:#e6e6e6;stop-opacity:1"
         offset="1" />
    </linearGradient>
    <linearGradient
       x1="110.96875"
       y1="976.29968"
       x2="110.96875"
       y2="992.375"
       id="linearGradient43236"
       xlink:href="#linearGradient4145-42"
       gradientUnits="userSpaceOnUse" />
    <linearGradient
       id="linearGradient4145-42">
      <stop
         id="stop4953"
         style="stop-color:#e694bb;stop-opacity:1"
         offset="0" />
      <stop
         id="stop4955"
         style="stop-color:#d3819a;stop-opacity:1"
         offset="0.26238" />
      <stop
         id="stop4957"
         style="stop-color:#b25a64;stop-opacity:1"
         offset="0.704952" />
      <stop
         id="stop4959"
         style="stop-color:#98313d;stop-opacity:1"
         offset="1" />
    </linearGradient>
    <linearGradient
       x1="110.96875"
       y1="976.29968"
       x2="110.99982"
       y2="991.87488"
       id="linearGradient14097-7"
       xlink:href="#linearGradient4145-42"
       gradientUnits="userSpaceOnUse"
       gradientTransform="matrix(1,0,0,1.00011,0,-0.10551)" />
    <linearGradient
       x1="110.96875"
       y1="976.29968"
       x2="110.96875"
       y2="992.375"
       id="linearGradient21742"
       xlink:href="#linearGradient4145-42"
       gradientUnits="userSpaceOnUse"
       gradientTransform="matrix(1.00399,0,0,1.00959,-1.1658,-9.36636)" />
    <clipPath
       clipPathUnits="userSpaceOnUse"
       id="clipPath867">
      <g
         inkscape:label="Clip"
         id="use869">
        <path
           d="m 47.000614,3.0210706 v 0.75 40.5000404 0.72723 h 0.75 32.499399 0.75 v -0.72723 -25.50003 -0.3282 l -0.2344,-0.2343 -14.9059,-15.0000104 -0.1875,-0.1875 h -0.3282 -17.593399 z"
           id="path875"
           style="color:#000000;font-style:normal;font-variant:normal;font-weight:normal;font-stretch:normal;font-size:medium;line-height:normal;font-family:'Andale Mono';text-indent:0pt;text-align:start;text-decoration:none;text-decoration-line:none;letter-spacing:normal;word-spacing:normal;text-transform:none;direction:ltr;text-anchor:start;display:inline;overflow:visible;visibility:visible;fill:#000000;fill-opacity:1;fill-rule:nonzero;stroke:none;stroke-width:1;marker:none"
           inkscape:connector-curvature="0" />
      </g>
    </clipPath>
  </defs>
  <metadata
     id="metadata21749">
    <rdf:RDF>
      <cc:Work
         rdf:about="">
        <dc:format>image/svg+xml</dc:format>
        <dc:type
           rdf:resource="http://purl.org/dc/dcmitype/StillImage" />
        <dc:title></dc:title>
      </cc:Work>
    </rdf:RDF>
  </metadata>
  <path
     style="color:#000000;font-style:normal;font-variant:normal;font-weight:normal;font-stretch:normal;font-size:medium;line-height:normal;font-family:'Andale Mono';text-indent:0pt;text-align:start;text-decoration:none;text-decoration-line:none;letter-spacing:normal;word-spacing:normal;text-transform:none;direction:ltr;text-anchor:start;display:inline;overflow:visible;visibility:visible;fill:#e6e6e6;fill-opacity:1;stroke:none;stroke-width:5.99873972;marker:none"
     d="M 29.705078 -0.083984375 C 27.658234 -0.075805254 25.583576 0.00449542 25.1875 0.013671875 L 7 0.013671875 C 6.813106 -0.004321175 6.624454 -0.004321175 6.4375 0.013671875 C 5.062346 0.27607036 3.975341 1.6123101 4 3.0117188 L 4 45 C 4.00015 46.570313 5.429312 47.99985 7 48 L 41 48 C 42.570687 47.99985 43.99985 46.570313 44 45 L 44 18.818359 C 44.018 18.026395 44.215294 8.8914456 43.664062 8.3222656 L 34.054688 0.24804688 C 33.770027 -0.027426575 31.751922 -0.092163496 29.705078 -0.083984375 z M 31.195312 3.0097656 L 31.328125 10.513672 C 31.340155 11.195372 31.966379 11.80479 32.644531 11.792969 L 40.416016 11.65625 C 40.548988 11.674363 40.684161 11.672765 40.816406 11.650391 L 40.898438 14.679688 L 41 18.771484 L 41 44.271484 L 41 44.998047 L 40.25 44.998047 L 7.75 44.998047 L 7 44.998047 L 7 44.271484 L 7 3.7714844 L 7 3.0214844 L 7.75 3.0214844 L 25.34375 3.0214844 L 25.671875 3.0214844 L 31.195312 3.0097656 z M 9.3574219 15.5 C 9.0804219 15.5 8.8574219 15.723 8.8574219 16 L 8.8574219 18 C 8.8574219 18.277 9.0804219 18.5 9.3574219 18.5 L 11.357422 18.5 C 11.634422 18.5 11.857422 18.277 11.857422 18 L 11.857422 16 C 11.857422 15.723 11.634422 15.5 11.357422 15.5 L 9.3574219 15.5 z M 14.279297 15.5 C 14.050347 15.51557 13.854382 15.694556 13.857422 15.884766 L 13.857422 18.117188 C 13.854922 18.318617 14.077052 18.502 14.320312 18.5 L 31.394531 18.5 C 31.637781 18.502 31.859832 18.318617 31.857422 18.117188 L 31.857422 15.884766 C 31.859922 15.683336 31.637791 15.498 31.394531 15.5 L 14.320312 15.5 C 14.306283 15.499466 14.293327 15.499466 14.279297 15.5 z M 11.357422 21.5 C 11.080422 21.5 10.857422 21.723 10.857422 22 L 10.857422 24 C 10.857422 24.277 11.080422 24.5 11.357422 24.5 L 13.357422 24.5 C 13.634422 24.5 13.857422 24.277 13.857422 24 L 13.857422 22 C 13.857422 21.723 13.634422 21.5 13.357422 21.5 L 11.357422 21.5 z M 16.279297 21.5 C 16.050347 21.51557 15.854382 21.694556 15.857422 21.884766 L 15.857422 24.117188 C 15.854922 24.318617 16.077053 24.502 16.320312 24.5 L 33.394531 24.5 C 33.637781 24.502 33.859832 24.318617 33.857422 24.117188 L 33.857422 21.884766 C 33.859922 21.683336 33.637791 21.498 33.394531 21.5 L 16.320312 21.5 C 16.306282 21.499466 16.293327 21.499466 16.279297 21.5 z M 11.357422 27.5 C 11.080422 27.5 10.857422 27.723 10.857422 28 L 10.857422 30 C 10.857422 30.277 11.080422 30.5 11.357422 30.5 L 13.357422 30.5 C 13.634422 30.5 13.857422 30.277 13.857422 30 L 13.857422 28 C 13.857422 27.723 13.634422 27.5 13.357422 27.5 L 11.357422 27.5 z M 16.279297 27.5 C 16.050347 27.51557 15.854382 27.694556 15.857422 27.884766 L 15.857422 30.117188 C 15.854922 30.318617 16.077053 30.502 16.320312 30.5 L 33.394531 30.5 C 33.637781 30.502 33.859832 30.318617 33.857422 30.117188 L 33.857422 27.884766 C 33.859922 27.683336 33.637791 27.498 33.394531 27.5 L 16.320312 27.5 C 16.306282 27.499466 16.293327 27.499466 16.279297 27.5 z M 9.3574219 33.5 C 9.0804219 33.5 8.8574219 33.723 8.8574219 34 L 8.8574219 36 C 8.8574219 36.277 9.0804219 36.5 9.3574219 36.5 L 11.357422 36.5 C 11.634422 36.5 11.857422 36.277 11.857422 36 L 11.857422 34 C 11.857422 33.723 11.634422 33.5 11.357422 33.5 L 9.3574219 33.5 z M 14.279297 33.5 C 14.050347 33.51557 13.854382 33.694556 13.857422 33.884766 L 13.857422 36.117188 C 13.854922 36.318618 14.077052 36.502 14.320312 36.5 L 31.394531 36.5 C 31.637781 36.502 31.859832 36.318618 31.857422 36.117188 L 31.857422 33.884766 C 31.859922 33.683336 31.637791 33.498 31.394531 33.5 L 14.320312 33.5 C 14.306283 33.499467 14.293327 33.499467 14.279297 33.5 z "
     id="path14075" />
</svg>

<svg xmlns="http://www.w3.org/2000/svg" width="48" height="48"><defs><linearGradient id="a"><stop offset="0" stop-color="#dc85e9"/><stop offset="1" stop-color="#f2cbf8"/></linearGradient><linearGradient id="b"><stop offset="0" stop-color="#dc85e9"/><stop offset="1" stop-color="#f2cbf8"/></linearGradient><linearGradient id="c"><stop offset="0" stop-color="#fff" stop-opacity=".588"/><stop offset="1" stop-color="#fff" stop-opacity=".863"/></linearGradient><linearGradient id="d"><stop offset="0" stop-color="#b3b3b3"/><stop offset="1" stop-color="#e6e6e6"/></linearGradient><linearGradient id="e"><stop offset="0" stop-color="#e694bb"/><stop offset=".262" stop-color="#d3819a"/><stop offset=".705" stop-color="#b25a64"/><stop offset="1" stop-color="#98313d"/></linearGradient></defs><path style="line-height:normal;text-indent:0;text-align:start;text-decoration-line:none;text-transform:none;marker:none" d="M29.705-.084c-2.047.008-4.121.088-4.517.098H7a2.938 2.938 0 0 0-.563 0C5.063.276 3.975 1.612 4 3.012V45c0 1.57 1.43 3 3 3h34c1.57 0 3-1.43 3-3V18.818c.018-.792.215-9.927-.336-10.496L34.054.248c-.284-.275-2.302-.34-4.349-.332zm1.49 3.094l.133 7.504c.012.681.638 1.29 1.317 1.279l7.771-.137c.133.018.268.017.4-.006l.082 3.03L41 18.77v26.227H7V3.021h18.672l5.523-.011zM9.357 15.5c-.277 0-.5.223-.5.5v2c0 .277.223.5.5.5h2c.277 0 .5-.223.5-.5v-2c0-.277-.223-.5-.5-.5h-2zm4.922 0c-.229.016-.425.195-.422.385v2.232c-.002.202.22.385.463.383h17.075c.243.002.465-.181.462-.383v-2.232c.003-.202-.22-.387-.462-.385H14.28zm-2.922 6c-.277 0-.5.223-.5.5v2c0 .277.223.5.5.5h2c.277 0 .5-.223.5-.5v-2c0-.277-.223-.5-.5-.5h-2zm4.922 0c-.229.016-.425.195-.422.385v2.232c-.002.202.22.385.463.383h17.075c.243.002.465-.181.462-.383v-2.232c.003-.202-.22-.387-.462-.385H16.28zm-4.922 6c-.277 0-.5.223-.5.5v2c0 .277.223.5.5.5h2c.277 0 .5-.223.5-.5v-2c0-.277-.223-.5-.5-.5h-2zm4.922 0c-.229.016-.425.195-.422.385v2.232c-.002.202.22.385.463.383h17.075c.243.002.465-.181.462-.383v-2.232c.003-.202-.22-.387-.462-.385H16.28zm-6.922 6c-.277 0-.5.223-.5.5v2c0 .277.223.5.5.5h2c.277 0 .5-.223.5-.5v-2c0-.277-.223-.5-.5-.5h-2zm4.922 0c-.229.016-.425.195-.422.385v2.232c-.002.202.22.385.463.383h17.075c.243.002.465-.181.462-.383v-2.232c.003-.202-.22-.387-.462-.385H14.28z" color="#000" font-weight="400" font-family="Andale Mono" overflow="visible" fill="#e6e6e6"/></svg>
